X:934022
T:North America Massed Bands 3/4 (Bass/Tenor)
C:
B:
O:
Z:Kevin Fraser
H:
Q:1/4=78
M:3/4
L:1/8
R:March
K:HP
U: R = ///
U: r = //
U: V = !accent!
V:S gstem=up stem=down dyn=up stafflines=1 clef=perc middle=G name="Snare" sname="Snare"
V:B gstem=up stem=down clef=bass dyn=up name="Bass" octave=-2
V:T gstem=up stem=down clef=perc dyn=up name="Tenor" 
I:MIDI=program 110
%%MIDI gracedivider 4
%%MIDI vol 100
[V:B][|         Vc>A cA cA| Vc>A cA cA| Vc>A cA cA| Vc2 A2 c2 | $ 
[V:B]           Vc2 A2 c2 | VA2 c2 A2 | Vc2 A2 c2 | VA2 z2 z2 | $ 
[V:B]           Vc>A cA cA| Vc>A cA cA| Vc>A cA cA| Vc2 A2 c2 | $ 
[V:B]           Vc2 A2 c2 | VA2 c2 A2 | Vc2 A2 c2 | VA2 z2 z2 |] $ 
[V:B][|         Vc>A cA cA| Vc>A cA cA| Vc>A cA cA| Vc2 A2 c2 | $ 
[V:B]           Vc2 A2 c2 | VA2 c2 A2 | Vc2 A2 c2 | VA2 z2 z2 | $ 
[V:B]           Vc>A cA cA| Vc>A cA cA| Vc>A cA cA| Vc2 A2 c2 | $ 
[V:B]           Vc2 A2 c2 | VA2 c2 A2 | Vc2 A2 c2 | VA2 z2 z2 |] $ 
[V:T][| ^g^e ^g^e ^g^e | ge eg/>e/ g/>g/e  | ^g^e ^g^e ^g^e | g2 g2 g2  | $ 
[V:T]   ^g^e ^g^e ^g^e | ge eg/>e/ g/>g/e  | ^g^e ^g^e ^g^e | g2 g2 g2  | $ 
[V:T]   ^g2 ^e2 ^g2    | ge eg/>e/ g/>g/e  | ^g2 ^e2 ^g2    | g2 z2 g2  | $ 
[V:T]   ^g2 ^e2 ^g2    | ge eg/>e/ g/>g/e  | ^g2 ^e2 ^g2    | g2 z2 g2  |] $ 
[V:T][| ^g^e ^g^e ^g^e | ge eg/>e/ g/>g/e  | ^g^e ^g^e ^g^e | g2 g2 g2  | $ 
[V:T]   ^g^e ^g^e ^g^e | ge eg/>e/ g/>g/e  | ^g^e ^g^e ^g^e | g2 g2 g2  | $ 
[V:T]   ^g2 z2 z2      | ge eg/>e/ g/>g/e  | ^g2 z2 z2      | g2 z2 g2  | $ 
[V:T]   ^g2 z2 z2      | ge eg/>e/ g/>g/e  | ^g2 z2 z2      | g2 z2 g2  |] $ 


